icons/stack-overflow-line.svg

<svg viewBox="0 0 24 24" fill="currentColor" xmlns="http://www.w3.org/2000/svg"><path d="M18.001 20.0025V15.0001H20.001V22.0025H4.00098V15.0001H6.00098V20.0025H18.001ZM7.50098 18.0001V16.0001H16.501V18.0001H7.50098ZM7.578 13.6197L7.9253 11.65L16.7886 13.2129L16.4413 15.1825L7.578 13.6197ZM9.21156 8.11608L10.2116 6.38403L18.0058 10.884L17.0058 12.6161L9.21156 8.11608ZM12.6289 3.5031L14.161 2.21753L19.9461 9.11193L18.414 10.3975L12.6289 3.5031Z"/></svg>

<svg xmlns="http://www.w3.org/2000/svg" viewBox="0 0 24 24">
    <g>
        <path fill="none" d="M0 0h24v24H0z"/>
        <path d="M18 20.002V15h2v7.002H4V15h2v5.002h12zM7.5 18v-2h9v2h-9zm.077-4.38l.347-1.97 8.864 1.563-.348 1.97-8.863-1.563zm1.634-5.504l1-1.732 7.794 4.5-1 1.732-7.794-4.5zm3.417-4.613l1.532-1.286 5.785 6.895-1.532 1.285-5.785-6.894z"/>
    </g>
</svg>
